X:53
T:[German Tune #3]
T:John Malchair's Third Collection of Tunes
%%VWML:Malchair-3619-p53
F:https://www.vwml.org/record/Malchair/3619/p53
F:www.vwml.org/topics/historic-dance-and-tune-books/Malchair
Z:Steve Mansfield Feb 2020
M:2/4
L:1/8
K:Bb
[DB] [DB]2 [DB] | Ae2e | (3dfe (3dcB | (3 AcB (3AGF | 
[DB] [DB]2 [DB] | Ae2e | (3dfe (3dcB | (3FGA B2 :|
|: f2g2 | f3e | ddcc | (3Bdc BF | f2g2 | f3e | ddcc | B2A2 :|
|: bb2b | aa2a | Gggg | gf f2 | ee2e | dd2d | {d}cBcd | BF B,2 :|
W:
T:[German Tune #4]
T:John Malchair's Third Collection of Tunes
%%VWML:Malchair-3619-p53
F:https://www.vwml.org/record/Malchair/3619/p53
F:www.vwml.org/topics/historic-dance-and-tune-books/Malchair
Z:Steve Mansfield Feb 2020
N:* As in Mss. Presumably intended as a D.S.
M:2/4
L:1/8
K:G
G2 g>fg// | b2g2 | d3e | d2 zg/e/ | dd/e/ dd | (c2B)g | fg b/a/g/f/ | g2 z2 "segno":|
|: (dc)AA | A3c | B>g g>f/g// | babg | (cB)AA | (dB)GG | (EG)(FA) | HG2 z2 :|
|: B4 | (dc)(BA) | A4 | G2d2 | e2f2 | g2fe | d3e | d2 z2 "*""segno":|
W:
T:[German Tune #5]
T:John Malchair's Third Collection of Tunes
%%VWML:Malchair-3619-p53
F:https://www.vwml.org/record/Malchair/3619/p53
F:www.vwml.org/topics/historic-dance-and-tune-books/Malchair
Z:Steve Mansfield Feb 2020
M:3/4
L:1/4
K:D
|: a | (af)g | aaa | (af)g | a2[FA] | [BD]g/e/c | a/f/d g/e/ | c e/c/A/c/ | d2z :|
|: a | (c'a)c' | d'af | [ga][ga][ga] | [fa][fa][fa] | c'ac' | (d'af) | ge a/f/ | dz :|

